packages/ffe-icons/icons/open/400/sm/transition_fade.svg

<svg xmlns="http://www.w3.org/2000/svg" height="20" viewBox="0 -960 960 960" width="20"><path d="M216-144q-33 0-52.5-19.5T144-216v-528q0-33 19.5-52.5T216-816h120q29.7 0 50.85 21.15Q408-773.7 408-744v528q0 29.7-21.15 50.85Q365.7-144 336-144H216Zm276.211 0Q477-144 466.5-154.289q-10.5-10.29-10.5-25.5Q456-195 466.289-205.5q10.29-10.5 25.5-10.5Q507-216 517.5-205.711q10.5 10.29 10.5 25.5Q528-165 517.711-154.5q-10.29 10.5-25.5 10.5Zm0-150Q477-294 466.5-304.289q-10.5-10.29-10.5-25.5Q456-345 466.289-355.5q10.29-10.5 25.5-10.5Q507-366 517.5-355.711q10.5 10.29 10.5 25.5Q528-315 517.711-304.5q-10.29 10.5-25.5 10.5Zm0-150Q477-444 466.5-454.289q-10.5-10.29-10.5-25.5Q456-495 466.289-505.5q10.29-10.5 25.5-10.5Q507-516 517.5-505.711q10.5 10.29 10.5 25.5Q528-465 517.711-454.5q-10.29 10.5-25.5 10.5Zm0-150Q477-594 466.5-604.289q-10.5-10.29-10.5-25.5Q456-645 466.289-655.5q10.29-10.5 25.5-10.5Q507-666 517.5-655.711q10.5 10.29 10.5 25.5Q528-615 517.711-604.5q-10.29 10.5-25.5 10.5Zm0-150Q477-744 466.5-754.289q-10.5-10.29-10.5-25.5Q456-795 466.289-805.5q10.29-10.5 25.5-10.5Q507-816 517.5-805.711q10.5 10.29 10.5 25.5Q528-765 517.711-754.5q-10.29 10.5-25.5 10.5Zm72 504Q549-240 538.5-250.289q-10.5-10.29-10.5-25.5Q528-291 538.289-301.5q10.29-10.5 25.5-10.5Q579-312 589.5-301.711q10.5 10.29 10.5 25.5Q600-261 589.711-250.5q-10.29 10.5-25.5 10.5Zm0-144Q549-384 538.5-394.289q-10.5-10.29-10.5-25.5Q528-435 538.289-445.5q10.29-10.5 25.5-10.5Q579-456 589.5-445.711q10.5 10.29 10.5 25.5Q600-405 589.711-394.5q-10.29 10.5-25.5 10.5Zm0-144Q549-528 538.5-538.289q-10.5-10.29-10.5-25.5Q528-579 538.289-589.5q10.29-10.5 25.5-10.5Q579-600 589.5-589.711q10.5 10.29 10.5 25.5Q600-549 589.711-538.5q-10.29 10.5-25.5 10.5Zm0-144Q549-672 538.5-682.289q-10.5-10.29-10.5-25.5Q528-723 538.289-733.5q10.29-10.5 25.5-10.5Q579-744 589.5-733.711q10.5 10.29 10.5 25.5Q600-693 589.711-682.5q-10.29 10.5-25.5 10.5Zm72 504Q621-168 610.5-178.289q-10.5-10.29-10.5-25.5Q600-219 610.289-229.5q10.29-10.5 25.5-10.5Q651-240 661.5-229.711q10.5 10.29 10.5 25.5Q672-189 661.711-178.5q-10.29 10.5-25.5 10.5Zm0-144Q621-312 610.5-322.289q-10.5-10.29-10.5-25.5Q600-363 610.289-373.5q10.29-10.5 25.5-10.5Q651-384 661.5-373.711q10.5 10.29 10.5 25.5Q672-333 661.711-322.5q-10.29 10.5-25.5 10.5Zm0-144Q621-456 610.5-466.289q-10.5-10.29-10.5-25.5Q600-507 610.289-517.5q10.29-10.5 25.5-10.5Q651-528 661.5-517.711q10.5 10.29 10.5 25.5Q672-477 661.711-466.5q-10.29 10.5-25.5 10.5Zm0-144Q621-600 610.5-610.289q-10.5-10.29-10.5-25.5Q600-651 610.289-661.5q10.29-10.5 25.5-10.5Q651-672 661.5-661.711q10.5 10.29 10.5 25.5Q672-621 661.711-610.5q-10.29 10.5-25.5 10.5Zm0-144Q621-744 610.5-754.289q-10.5-10.29-10.5-25.5Q600-795 610.289-805.5q10.29-10.5 25.5-10.5Q651-816 661.5-805.711q10.5 10.29 10.5 25.5Q672-765 661.711-754.5q-10.29 10.5-25.5 10.5Zm72 504Q693-240 682.5-250.289q-10.5-10.29-10.5-25.5Q672-291 682.289-301.5q10.29-10.5 25.5-10.5Q723-312 733.5-301.711q10.5 10.29 10.5 25.5Q744-261 733.711-250.5q-10.29 10.5-25.5 10.5Zm0-144Q693-384 682.5-394.289q-10.5-10.29-10.5-25.5Q672-435 682.289-445.5q10.29-10.5 25.5-10.5Q723-456 733.5-445.711q10.5 10.29 10.5 25.5Q744-405 733.711-394.5q-10.29 10.5-25.5 10.5Zm0-144Q693-528 682.5-538.289q-10.5-10.29-10.5-25.5Q672-579 682.289-589.5q10.29-10.5 25.5-10.5Q723-600 733.5-589.711q10.5 10.29 10.5 25.5Q744-549 733.711-538.5q-10.29 10.5-25.5 10.5Zm0-144Q693-672 682.5-682.289q-10.5-10.29-10.5-25.5Q672-723 682.289-733.5q10.29-10.5 25.5-10.5Q723-744 733.5-733.711q10.5 10.29 10.5 25.5Q744-693 733.711-682.5q-10.29 10.5-25.5 10.5Zm72 528Q765-144 754.5-154.289q-10.5-10.29-10.5-25.5Q744-195 754.289-205.5q10.29-10.5 25.5-10.5Q795-216 805.5-205.711q10.5 10.29 10.5 25.5Q816-165 805.711-154.5q-10.29 10.5-25.5 10.5Zm0-150Q765-294 754.5-304.289q-10.5-10.29-10.5-25.5Q744-345 754.289-355.5q10.29-10.5 25.5-10.5Q795-366 805.5-355.711q10.5 10.29 10.5 25.5Q816-315 805.711-304.5q-10.29 10.5-25.5 10.5Zm0-150Q765-444 754.5-454.289q-10.5-10.29-10.5-25.5Q744-495 754.289-505.5q10.29-10.5 25.5-10.5Q795-516 805.5-505.711q10.5 10.29 10.5 25.5Q816-465 805.711-454.5q-10.29 10.5-25.5 10.5Zm0-150Q765-594 754.5-604.289q-10.5-10.29-10.5-25.5Q744-645 754.289-655.5q10.29-10.5 25.5-10.5Q795-666 805.5-655.711q10.5 10.29 10.5 25.5Q816-615 805.711-604.5q-10.29 10.5-25.5 10.5Zm0-150Q765-744 754.5-754.289q-10.5-10.29-10.5-25.5Q744-795 754.289-805.5q10.29-10.5 25.5-10.5Q795-816 805.5-805.711q10.5 10.29 10.5 25.5Q816-765 805.711-754.5q-10.29 10.5-25.5 10.5Z"/></svg>

<svg xmlns="http://www.w3.org/2000/svg" height="20" viewBox="0 -960 960 960" width="20"><path d="M216-144q-33 0-52.5-19.5T144-216v-528q0-33 19.5-52.5T216-816h120q29.7 0 50.85 21.15Q408-773.7 408-744v528q0 29.7-21.15 50.85Q365.7-144 336-144H216Zm276.21 0q-15.21 0-25.71-10.29t-10.5-25.5q0-15.21 10.29-25.71t25.5-10.5q15.21 0 25.71 10.29t10.5 25.5q0 15.21-10.29 25.71t-25.5 10.5Zm0-150q-15.21 0-25.71-10.29t-10.5-25.5q0-15.21 10.29-25.71t25.5-10.5q15.21 0 25.71 10.29t10.5 25.5q0 15.21-10.29 25.71t-25.5 10.5Zm0-150q-15.21 0-25.71-10.29t-10.5-25.5q0-15.21 10.29-25.71t25.5-10.5q15.21 0 25.71 10.29t10.5 25.5q0 15.21-10.29 25.71t-25.5 10.5Zm0-150q-15.21 0-25.71-10.29t-10.5-25.5q0-15.21 10.29-25.71t25.5-10.5q15.21 0 25.71 10.29t10.5 25.5q0 15.21-10.29 25.71t-25.5 10.5Zm0-150q-15.21 0-25.71-10.29t-10.5-25.5q0-15.21 10.29-25.71t25.5-10.5q15.21 0 25.71 10.29t10.5 25.5q0 15.21-10.29 25.71t-25.5 10.5Zm72 504q-15.21 0-25.71-10.29t-10.5-25.5q0-15.21 10.29-25.71t25.5-10.5q15.21 0 25.71 10.29t10.5 25.5q0 15.21-10.29 25.71t-25.5 10.5Zm0-144q-15.21 0-25.71-10.29t-10.5-25.5q0-15.21 10.29-25.71t25.5-10.5q15.21 0 25.71 10.29t10.5 25.5q0 15.21-10.29 25.71t-25.5 10.5Zm0-144q-15.21 0-25.71-10.29t-10.5-25.5q0-15.21 10.29-25.71t25.5-10.5q15.21 0 25.71 10.29t10.5 25.5q0 15.21-10.29 25.71t-25.5 10.5Zm0-144q-15.21 0-25.71-10.29t-10.5-25.5q0-15.21 10.29-25.71t25.5-10.5q15.21 0 25.71 10.29t10.5 25.5q0 15.21-10.29 25.71t-25.5 10.5Zm72 504q-15.21 0-25.71-10.29t-10.5-25.5q0-15.21 10.29-25.71t25.5-10.5q15.21 0 25.71 10.29t10.5 25.5q0 15.21-10.29 25.71t-25.5 10.5Zm0-144q-15.21 0-25.71-10.29t-10.5-25.5q0-15.21 10.29-25.71t25.5-10.5q15.21 0 25.71 10.29t10.5 25.5q0 15.21-10.29 25.71t-25.5 10.5Zm0-144q-15.21 0-25.71-10.29t-10.5-25.5q0-15.21 10.29-25.71t25.5-10.5q15.21 0 25.71 10.29t10.5 25.5q0 15.21-10.29 25.71t-25.5 10.5Zm0-144q-15.21 0-25.71-10.29t-10.5-25.5q0-15.21 10.29-25.71t25.5-10.5q15.21 0 25.71 10.29t10.5 25.5q0 15.21-10.29 25.71t-25.5 10.5Zm0-144q-15.21 0-25.71-10.29t-10.5-25.5q0-15.21 10.29-25.71t25.5-10.5q15.21 0 25.71 10.29t10.5 25.5q0 15.21-10.29 25.71t-25.5 10.5Zm72 504q-15.21 0-25.71-10.29t-10.5-25.5q0-15.21 10.29-25.71t25.5-10.5q15.21 0 25.71 10.29t10.5 25.5q0 15.21-10.29 25.71t-25.5 10.5Zm0-144q-15.21 0-25.71-10.29t-10.5-25.5q0-15.21 10.29-25.71t25.5-10.5q15.21 0 25.71 10.29t10.5 25.5q0 15.21-10.29 25.71t-25.5 10.5Zm0-144q-15.21 0-25.71-10.29t-10.5-25.5q0-15.21 10.29-25.71t25.5-10.5q15.21 0 25.71 10.29t10.5 25.5q0 15.21-10.29 25.71t-25.5 10.5Zm0-144q-15.21 0-25.71-10.29t-10.5-25.5q0-15.21 10.29-25.71t25.5-10.5q15.21 0 25.71 10.29t10.5 25.5q0 15.21-10.29 25.71t-25.5 10.5Zm72 528q-15.21 0-25.71-10.29t-10.5-25.5q0-15.21 10.29-25.71t25.5-10.5q15.21 0 25.71 10.29t10.5 25.5q0 15.21-10.29 25.71t-25.5 10.5Zm0-150q-15.21 0-25.71-10.29t-10.5-25.5q0-15.21 10.29-25.71t25.5-10.5q15.21 0 25.71 10.29t10.5 25.5q0 15.21-10.29 25.71t-25.5 10.5Zm0-150q-15.21 0-25.71-10.29t-10.5-25.5q0-15.21 10.29-25.71t25.5-10.5q15.21 0 25.71 10.29t10.5 25.5q0 15.21-10.29 25.71t-25.5 10.5Zm0-150q-15.21 0-25.71-10.29t-10.5-25.5q0-15.21 10.29-25.71t25.5-10.5q15.21 0 25.71 10.29t10.5 25.5q0 15.21-10.29 25.71t-25.5 10.5Zm0-150q-15.21 0-25.71-10.29t-10.5-25.5q0-15.21 10.29-25.71t25.5-10.5q15.21 0 25.71 10.29t10.5 25.5q0 15.21-10.29 25.71t-25.5 10.5Z"/></svg>
